resources/svg/regular/cloud-download.svg

<svg xmlns="http://www.w3.org/2000/svg" fill="currentColor" stroke="none" viewBox="0 0 24 24"><path d="M18.948 11.112C18.511 7.67 15.563 5 12.004 5c-2.756 0-5.15 1.611-6.243 4.15-2.148.642-3.757 2.67-3.757 4.85 0 2.757 2.243 5 5 5h1v-2h-1c-1.654 0-3-1.346-3-3 0-1.404 1.199-2.757 2.673-3.016l.581-.102.192-.558C8.153 8.273 9.898 7 12.004 7c2.757 0 5 2.243 5 5v1h1c1.103 0 2 .897 2 2s-.897 2-2 2h-2v2h2c2.206 0 4-1.794 4-4a4.008 4.008 0 0 0-3.056-3.888z"/><path d="M13.004 14v-4h-2v4h-3l4 5 4-5z"/></svg>

<svg xmlns="http://www.w3.org/2000/svg" fill="currentColor" stroke="none" viewBox="0 0 24 24"><path d="M18.948,11.112C18.511,7.67,15.563,5,12.004,5c-2.756,0-5.15,1.611-6.243,4.15C3.613,9.792,2.004,11.82,2.004,14 c0,2.757,2.243,5,5,5h1v-2h-1c-1.654,0-3-1.346-3-3c0-1.404,1.199-2.757,2.673-3.016l0.581-0.102l0.192-0.558 C8.153,8.273,9.898,7,12.004,7c2.757,0,5,2.243,5,5v1h1c1.103,0,2,0.897,2,2c0,1.103-0.897,2-2,2h-2v2h2c2.206,0,4-1.794,4-4 C22.004,13.119,20.699,11.538,18.948,11.112z"/><path d="M13.004 14L13.004 10 11.004 10 11.004 14 8.004 14 12.004 19 16.004 14z"/></svg>
